!!!!SEGMENT: Distler_Jahrkreis_21_Christ-fuhr-gen-Himmel.krn
!!!COM: Distler, Hugo
!!!CDT: 1908-1942
!!!OPR@@DE: Der Jahrkreis
!!!OPR@EN: The Year Cycle
!!!OTL@@DE: Christ fuhr geh Himmel
!!!OTL@EN: Christ rose to Heaven
!!!OPS: 5
!!!ONM: 21
**kern	**text	**kern	**text	**kern	**text
*part3	*part3	*part2	*part2	*part1	*part1
*staff3	*staff3	*staff2	*staff2	*staff1	*staff1
*Ialto	*	*Isoprn	*	*Isoprn	*
*clefG2	*	*clefG2	*	*clefG2	*
*k[f#c#]	*	*k[f#c#]	*	*k[f#c#]	*
*M4/4	*	*M4/4	*	*M4/4	*
*MM120	*	*MM120	*	*MM120	*
=1	=1	=1	=1	=1	=1
1B	Christ	4r	.	2r	.
.	.	4f#	Christ	.	.
.	.	4f#	fuhr	4r	.
.	.	4f#	gen	4dd	Christ
=2	=2	=2	=2	=2	=2
2A	fuhr	4a	Him-	4dd	fuhr
.	.	2f#,	mel,	4b	gen
2B	gen	.	.	4dd	Him-
.	.	4f#	Christ	[4dd	mel,
=3	=3	=3	=3	=3	=3
(2d	Him-	4f#	fuhr	4dd],	.
.	.	4f#	gen	4dd	Christ
2e	.	4a	Him-	4dd	fuhr
.	.	[4f#	mel,	4b	gen
=4	=4	=4	=4	=4	=4
*M6/4	*	*M6/4	*	*M6/4	*
1.B)	.	4f#]	.	(4.dd	Him-
.	.	4f#	Christ	.	.
.	.	.	.	8cc#L	.
.	.	4f#	fuhr	8aJ	.
.	.	.	.	4b,	.
.	.	4f#	gen	.	.
.	.	.	.	8bL	.
.	.	2a	Him-	8cc#	.
.	.	.	.	8eeJ	.
.	.	.	.	[4cc#	.
!!LO:LB:g=original
=5	=5	=5	=5	=5	=5
*M4/4	*	*M4/4	*	*M4/4	*
1B;	mel.	(2g#	mel.	4cc#]	.
.	.	.	.	8bL	.
.	.	.	.	8aJ)	.
.	.	2f#)	.	4b;	mel.
.	.	.	.	4b	Was
=6	=6	=6	=6	=6	=6
*M6/4	*	*M6/4	*	*M6/4	*
1.r	.	1.r	.	(2b	sandt
.	.	.	.	4a)	.
.	.	.	.	4b	er
.	.	.	.	4b	uns
.	.	.	.	4gn	her-
=7	=7	=7	=7	=7	=7
1.r	.	1.r	.	(2f#	nie-
.	.	.	.	2a	.
.	.	.	.	4g	.
.	.	.	.	4e	.
=8	=8	=8	=8	=8	=8
*M4/4	*	*M4/4	*	*M4/4	*
1r	.	2r	.	2d)	.
.	.	4r	.	2e	der?
.	.	4e	Den	.	.
=9	=9	=9	=9	=9	=9
4r	.	2a	Troe-	2r	.
4A	Den	.	.	.	.
2cn	Troe-	4a	ster,	4r	.
.	.	4e	den	4a	Den
=10	=10	=10	=10	=10	=10
4B	ster,	(4d	hei-	2dd	Troe-
4B	den	8eL	.	.	.
.	.	8f#J	.	.	.
2e	hei-	2g)	.	4b	ster,
.	.	.	.	4b	den
!!LO:LB:g=original
=11	=11	=11	=11	=11	=11
*M3/4	*	*M3/4	*	*M3/4	*
4d	li-	2g	li-	4.ee	hei-
2cn	gen	.	.	.	.
.	.	.	.	8ee	li-
*	*	*^	*	*	*
.	.	4a	4a	gen	4ee	gen
=12	=12	=12	=12	=12	=12	=12
*M4/4	*	*M4/4	*M4/4	*	*M4/4	*
2B,	Geist,	2b,	2f#	Geist,	2dd#,	Geist,
*	*	*v	*v	*	*	*
4B	zu	4b	zu	4dd#	zu
[4g	Trost	[4b	Trost	[4ee	Trost
=13	=13	=13	=13	=13	=13
4g]	.	4b]	.	4ee]	.
4f#	der	4a	der	4ddn	der
4e	ar-	4b	ar-	4b	ar-
4e	men	4g	men	4b	men
=14	=14	=14	=14	=14	=14
*M3/4	*	*M3/4	*	*M3/4	*
4d	Chri-	4f#	Chri-	2b	Chri-
4d	sten-	4f#	sten-	.	.
4cn,	heit.	4e,	heit.	4a	sten-
=15	=15	=15	=15	=15	=15
*M4/4	*	*M4/4	*	*M4/4	*
2B	Hal-	(4.f#	Hal-	4b,	heit.
.	.	.	.	8b	Hal-
.	.	8e)	.	8b	le-
4B	le-	4d	le-	(4dd	lu-
[4A	lu-	([4e	lu-	[4cc#	.
=16	=16	=16	=16	=16	=16
*M6/4	*	*M6/4	*	*M6/4	*
2A]	.	4e]	.	8cc#L]	.
.	.	.	.	8bJ	.
.	.	4f#)	.	4a)	.
2.e;	ja!	4g#;	ja!	2.b;	ja!
.	.	(4b	Hal-	.	.
.	.	4a)	.	.	.
4r	.	4gn	le-	4r	.
!!LO:LB:g=original
=17	=17	=17	=17	=17	=17
1.r	.	(4.a	lu-	2.r	.
.	.	8b	.	.	.
.	.	4ccn)	.	.	.
.	.	2b,	ja,	(4ee	Hal-
.	.	.	.	4dd)	.
.	.	4b	Hal-	4b	le-
=18	=18	=18	=18	=18	=18
2.r	.	4b	le-	(4.dd	lu-
.	.	2a	lu-	.	.
.	.	.	.	8ee	.
.	.	.	.	4ff#)	.
(4e	Hal-	2b,	ja,	2.ee,	ja,
4d)	.	.	.	.	.
4B	le-	4b	Hal-	.	.
=19	=19	=19	=19	=19	=19
(4.d	lu-	4b	le-	(4dd	Hal-
.	.	2a	lu-	4b)	.
8e	.	.	.	.	.
4f#)	.	.	.	4a	le-
2e,	ja,	4b,	ja,	(4.g	lu-
.	.	4f#	Hal-	.	.
.	.	.	.	8a	.
4d	Hal-	4f#	le-	4b)	.
=20	=20	=20	=20	=20	=20
4d	le-	(4.e	lu-	4a,	ja,
2cn	lu-	.	.	4a	Hal-
.	.	8f#	.	.	.
.	.	4g)	.	4a	le-
2B,	ja.	4f#,	ja,	(4.b	lu-
.	.	4a	Hal-	.	.
.	.	.	.	8cc#	.
4f#	Hal-	4a	le-	4dd)	.
!!LO:LB:g=original
=21	=21	=21	=21	=21	=21
4f#	le-	(4.g#	lu-	4cc#,	ja,
2e	lu-	.	.	4cc#	Hal-
.	.	8a	.	.	.
.	.	4b)	.	4cc#	le-
2f#,	ja,	4a,	ja,	(4.dd	lu-
.	.	4cc#	Hal-	.	.
.	.	.	.	8ee	.
4a	Hal-	4cc#	le-	4ff#	.
=22	=22	=22	=22	=22	=22
4a	le-	(4.b	lu-	4ee	.
2g	lu-	.	.	4dd	.
.	.	8a	.	.	.
*	*	*^	*	*	*
.	.	4gn	4g	.	4b	.
2.d	ja!	2a,	2.f#	ja!	4dd)	.
.	.	.	.	.	2dd,	ja!
.	.	([4b	.	Hal-	.	.
=23	=23	=23	=23	=23	=23	=23
1.r	.	4b]	4b	.	(4dd	Hal-
*	*	*v	*v	*	*	*
.	.	4a)	.	2b)	Hal-
.	.	4g	le-	.	.
.	.	(4.a	lu-	4dd	le-
.	.	.	.	(4b	lu-
.	.	8b	.	.	.
.	.	4ccn)	.	4a)	.
=24	=24	=24	=24	=24	=24
(4g	Hal-	4b,	ja,	2g,	ja,
2e)	.	4g	Hal-	.	-
.	.	4e	le-	(4ee	Hal-
4g	le-	(4.g	lu-	2ccn)	.
(4e	lu-	.	.	.	.
.	.	8a	.	.	.
4d)	.	4b	.	4ee	le-
!!LO:LB:g=original
=25	=25	=25	=25	=25	=25
2cn,	ja,	4.a	.	(4ccn	lu-
.	.	.	.	4b)	.
.	.	8gL	.	.	.
(4a	Hal-	8a	.	2a,	ja,
.	.	8bJ)	.	.	.
2f#)	.	4a,	ja,	.	.
.	.	4dd	Hal-	(4ff#	Hal-
4a	le-	4b	le-	[4dd	.
=26	=26	=26	=26	=26	=26
*M4/4	*	*M4/4	*	*M4/4	*
(4f#	lu-	(4.dd	lu-	4dd]	.
4e)	.	.	.	4ff#	le-
.	.	8ee	.	.	.
2d,	ja!	4ff#)	.	(4dd	lu-
.	.	4ee,	ja!	4cc#)	.
=27	=27	=27	=27	=27	=27
*M6/4	*	*M6/4	*	*M6/4	*
2b	Hal-	(2dd	Hal-	4b,	ja!
.	.	.	.	4a	Hal-
(4g	le-	4b)	.	4g	le-
4e)	.	4dd	le-	(4.a	lu-
2f#	lu-	(4b	lu-	.	.
.	.	.	.	8b	.
*	*	*	*	*^	*
.	.	4a)	.	4dd)	4dd	.
=28	=28	=28	=28	=28	=28	=28
*M7/4	*	*M7/4	*	*M7/4	*M7/4	*
4e,	ja,	2.g	ja!	2.ee	2.b	ja!
*	*	*	*	*v	*v	*
(4.b	Hal-	.	.	.	.
8a	.	.	.	.	.
4g)	.	1r	.	1r	.
4e	le-	.	.	.	.
2f#	lu-	.	.	.	.
!!LO:LB:g=original
=29	=29	=29	=29	=29	=29
*M4/4	*	*M4/4	*	*M4/4	*
*met(c|)	*	*met(c|)	*	*met(c|)	*
[1e	ja,	4r	.	2r	.
.	.	(4b	Hal-	.	.
.	.	4g)	.	4r	.
.	.	4e	le-	(4ee	Hal-
=30	=30	=30	=30	=30	=30
1e_	.	2f#	lu-	4cc#)	.
.	.	.	.	4a	le-
.	.	4g#,	ja,	2b	lu-
.	.	(4b	Hal-	.	.
=31	=31	=31	=31	=31	=31
1e_	.	4gn)	.	4b,	ja,
.	.	4e	le-	(4ee	Hal-
.	.	2f#	lu-	4cc#)	.
.	.	.	.	4a	le-
=32	=32	=32	=32	=32	=32
*M7/4	*	*M7/4	*	*M7/4	*
4e],	.	2.g#	ja!	2b	lu-
(4.b	Hal-	.	.	.	.
.	.	.	.	4b	ja!
8a	.	.	.	.	.
4g)	.	1r	.	1r	.
4e	le-	.	.	.	.
2f#	lu-	.	.	.	.
=33	=33	=33	=33	=33	=33
*M4/4	*	*M4/4	*	*M4/4	*
*met(c|)	*	*met(c|)	*	*met(c|)	*
[1e	.	4r	.	2r	.
.	.	(4b	Hal-	.	.
.	.	4gn)	.	4r	.
.	.	4e	le-	(4ee	Hal-
=34	=34	=34	=34	=34	=34
2e],	.	2f#	lu-	4cc#)	.
.	.	.	.	4a	le-
4r	.	4g#,	ja,	2b	lu-
[4e	Hal-	(4b	Hal-	.	.
!!LO:LB:g=original
=35	=35	=35	=35	=35	=35
4e]	.	4gn)	.	4b,	ja,
4c#	le-	4e	le-	(4ee	Hal-
2A	lu-	2f#	lu-	4cc#)	.
.	.	.	.	4a	le-
=36	=36	=36	=36	=36	=36
4e,	ja,	4g#,	ja,	2b	lu-
2e	Hal-	(4b	Hal-	.	.
.	.	4gn)	.	4b,	ja,
4c#	le-	4e	le-	(4ee	Hal-
=37	=37	=37	=37	=37	=37
2A	lu-	(4f#	lu-	4cc#)	.
.	.	4.e	.	4a	le-
[2e	ja!	.	.	2b	lu-
.	.	8f#L	.	.	.
.	.	8g#	.	.	.
.	.	8aJ)	.	.	.
=38	=38	=38	=38	=38	=38
2e],	.	2g#,	ja!	2b,	ja!
2r	.	2e	Des	2r	.
=39	=39	=39	=39	=39	=39
*M4/4	*	*M4/4	*	*M4/4	*
4r	.	2a	solln	2r	.
4A	Des	.	.	.	.
4cn	solln	4a	wir	4r	.
4c	wir	4e	al-	4a	Des
=40	=40	=40	=40	=40	=40
4B	al-	4d	le,	4dd	solln
4B	le	(8eL	al-	4dd	wir
.	.	8f#J	.	.	.
(2e	froeh-	2g)	.	4b	al-
.	.	.	.	4b	le
!!LO:LB:g=original
=41	=41	=41	=41	=41	=41
*M3/4	*	*M3/4	*	*M3/4	*
4d)	.	4g	le	2ee	froeh-
2cn	lich	4g	froeh-	.	.
.	.	4a	lich	4ee	lich
=42	=42	=42	=42	=42	=42
*M2/4	*	*M2/4	*	*M2/4	*
4B,	sein,	4b,	sein,	4dd#,	sein,
[4g	Christ	[4b	Christ	[4ee	Christ
=43	=43	=43	=43	=43	=43
*M4/4	*	*M4/4	*	*M4/4	*
4g]	.	4b]	.	4ee]	.
4f#	will	4a	will	4ddn	will
4e	un-	4b	un-	4b	un-
4e	ser	4g	ser	4b	ser
=44	=44	=44	=44	=44	=44
*M3/4	*	*M3/4	*	*M3/4	*
2d	Trost	2f#	Trost	2b	Trost
4cn,	sein.	4e,	sein.	4a,	sein.
=45	=45	=45	=45	=45	=45
*M4/4	*	*M4/4	*	*M4/4	*
2B	Hal-	(4.f#	Hal-	4b	Hal-
.	.	.	.	4b	le-
.	.	8e)	.	.	.
4B	le-	4d	le-	(4dd	lu-
[4A	lu-	[(4e	lu-	[4cc#	.
=46	=46	=46	=46	=46	=46
2A]	.	4e]	.	8cc#L]	.
.	.	.	.	8bJ	.
.	.	4f#)	.	4a)	.
2e;	ja!	2g#;	ja!	2b;	ja!
==	==	==	==	==	==
*-	*-	*-	*-	*-	*-
!!!YOR: Bärenreiter-Ausgabe 676
!!!YOY: 1933
!!!EFL: 21/52
!!!URL-github: https://github.com/LucasHofmann/distler/blob/main/Jahrkreis/Distler_Jahrkreis_21_Christ-fuhr-gen-Himmel.krn
!!!URL-pdf: https://imslp.eu/files/imglnks/euimg/7/7d/IMSLP834545-PMLP518834-5-jahrkreis-EA--original-paper-600dpi.pdf#page=40 First edition, Kassel: Bärenreiter, 1933. Plate BA 676.
!!!URL-imslp: https://imslp.org/wiki/Der_Jahrkreis,_Op.5_(Distler,_Hugo)#IMSLP834545
!!!system-decoration: [(s1,s2,s3)]
!!!ENC: Lucas Hofmann
!!!END: 2023/10/28
!!!title: @{OPR@@DE}, Op. @{OPS}, Nr. @{ONM}. <i>@{OTL@@DE}</i>
